X:8846
T:La Bobine - bourree
C:Patrick Bouffard
N:abc transcription Simon Wascher
N:if you find an error in this transcription please inform simon.wascher@chello.at
M:3/8
L:1/16
K:G
B2A2G2|BAG4|BAGABc|d2AdAF|
A2G2F2|AGF4|1dedcAc|B4G2:|2dedcBA|G6||
|:B3AG2|FGABcd|e2d2A2|c2B2G2|
ABA2G2|F3DFA|d2^c2d2|1B4G2:|2G6||
